X:1
T:O quam moestus
T:O quam moestus
T:André Vierendeels (15/09/10)
C:André Vierendeels
C:(15/09/10)
%%score [ 1 2 3 4 ]
L:1/8
Q:1/4=120
M:2/2
K:G
V:1 treble nm="Soprano" snm="S"
V:2 treble nm="Alto" snm="A"
V:3 treble-8 nm="Tenor" snm="T"
V:4 bass nm="Bass" snm="B"
V:1
 d4 c4 | B4 B4 | c4 B4 | A4 !fermata!A4 | B4 A4 | G4 G4 | F4 F4 | !fermata!G8 | G4 A4 | B4 B4 | %10
w: O quam|moe- stus|cor- dis|ae- stus|pi- am|ma- trem|con- fi-|cit,|su- um|na- tum|
 c4 B4 | A4 !fermata!A4 | d4 d4 | c4 B4 | A4 A4 | !fermata!G8 |] %16
w: dum li-|bra- tum|su- per|li- gno|con- spi-|cit.|
V:2
 B4 G4 | GFEF FGAB | cBAG FEFG | EDGF !fermata!E4 | G4 F4 | E4 E4 | A4 B4 | G8 | G2 F2 E2 D2 | %9
w: O quam|moe- * * * stus _ _ _|cor- * * * dis _ _ _|ae- * * * stus|pi- am|ma- trem|con- fi-||su- * um _|
 F2 G2 F2 E2 | E4 A2 ^G2 | F2 G2 !fermata!F4 | D2 EF G2 AB | G2 EF GFED | G4 F G2 F | %15
w: na- * * tum|dum li- *|bra- * tum|su- * * per _ _|li- * * gno _ _ _|con- spi- * *|
 !fermata!D8 |] %16
w: cit.|
V:3
 d4 e4 | BABc d2 B2 | e2 Ac BcdB | A4 !fermata!^c4 | d4 d4 | B4 c4 | d3 e ^d4 | !fermata!B8 | %8
w: O quam|moe- * * * stus _|cor- * * dis _ _ _|ae- stus|pi- am|ma- rem|con- * fi-|cit,|
 B2 A6 | d2 B4 G2 | G2 A2 B2 ^cd | ^c4 !fermata!A4 | AFGA B2 AG | E2 GA BABc | d2 cB AB c2 | %15
w: su- um|_ _ tum|dum _ li- * *|bra- tum|su- * * * per _ _|li- * * gno _ _ _|con- * * spi- * *|
 !fermata!B8 |] %16
w: cit.|
V:4
 G,4 C,4 | E,F,G,A, B,2 F,G, | A,G,F,E, D,C, B,,2 | A,,B,,^C,D, !fermata!A,,4 | G,4 D,4 | E,4 E,4 | %6
w: O quam|moe- * * * stus _ _|cor- * * * dis _ _|ae- * * * stus|pi- am|ma- trem|
 D,4 B,,4 | !fermata!E,8 | G,2 D,2 ^C,4 | F,2 E,2 ^D,2 E,2 | C,2 A,,2 E,4 | F,2 E,2 !fermata!D,4 | %12
w: con- fi-|cit,|su- * um|na- * * tum|dum _ li-|bra- * tum|
 D,4 G,,4 | C,4 G,,4 | D,4 D,4 | !fermata!G,8 |] %16
w: su- per|li- gno|con- spi-|cit.|

